icons/nx.svg

<svg width="16" height="16" viewBox="0 0 16 16" fill="none" xmlns="http://www.w3.org/2000/svg">
<g clip-path="url(#clip0_840_30)">
<path d="M7.80419 9.79545L6.01598 12.7675L3.051 7.67636L3.04459 13H1V4H3.06766L6.06341 9.3325V6.91886L7.80419 9.79545ZM8.49256 6.04545C8.50666 6.01955 8.49256 4.02591 8.49705 4H6.42746C6.42746 4.03136 6.42425 6.01477 6.42746 6.04545H8.49256ZM14.8007 10.2625C14.8631 10.222 14.9144 10.1647 14.9493 10.0963C14.9842 10.0279 15.0015 9.95095 14.9994 9.87318C14.9936 8.06773 13.6162 6.52273 11.9171 6.52273C11.4065 6.52242 10.9037 6.65717 10.4542 6.91484C10.0047 7.17251 9.62241 7.54502 9.3418 7.99886C9.33603 7.98318 8.4682 6.53977 8.45923 6.52273H6.42874L8.39129 9.79545L6.47617 13H8.49448L9.3636 11.5798L10.2487 13H12.2472L10.4352 9.96659C10.4055 9.90757 10.3893 9.84194 10.3878 9.775C10.3877 9.56289 10.4269 9.35283 10.5031 9.15683C10.5794 8.96082 10.6911 8.78271 10.8321 8.63266C10.973 8.48261 11.1404 8.36356 11.3245 8.2823C11.5087 8.20105 11.7062 8.15918 11.9056 8.15909H11.9171C12.7715 8.15909 12.9137 8.70455 13.0983 8.9575C13.4618 9.46205 14.1879 9.24114 14.1879 9.89841C14.1892 9.9739 14.209 10.0477 14.2454 10.1125C14.2819 10.1773 14.3336 10.2308 14.3956 10.2677C14.4575 10.3045 14.5275 10.3234 14.5985 10.3225C14.6694 10.3216 14.7389 10.3009 14.8 10.2625H14.8007Z" fill="#457CE7"/>
</g>
<defs>
<clipPath id="clip0_840_30">
<rect width="14" height="9" fill="white" transform="translate(1 4)"/>
</clipPath>
</defs>
</svg>

<svg xmlns="http://www.w3.org/2000/svg" width="16" height="16" fill="none"><g clip-path="url(#a)"><path fill="#457CE7" d="m7.804 9.795-1.788 2.973-2.965-5.092L3.045 13H1V4h2.068l2.995 5.332V6.92l1.741 2.876Zm.689-3.75c.014-.025 0-2.02.004-2.045h-2.07c0 .031-.003 2.015 0 2.045h2.066Zm6.308 4.217a.431.431 0 0 0 .148-.166.464.464 0 0 0 .05-.223c-.005-1.805-1.383-3.35-3.082-3.35-.51 0-1.013.134-1.463.392a3.16 3.16 0 0 0-1.112 1.084c-.006-.016-.874-1.46-.883-1.476H6.43L8.39 9.795 6.476 13h2.018l.87-1.42.885 1.42h1.998l-1.812-3.033a.449.449 0 0 1-.047-.192c0-.212.039-.422.115-.618.076-.196.188-.374.33-.524.14-.15.307-.27.492-.35a1.44 1.44 0 0 1 .58-.124h.012c.854 0 .997.546 1.181.798.364.505 1.09.284 1.09.941.001.076.021.15.057.215a.42.42 0 0 0 .15.155.387.387 0 0 0 .405-.006Z"/></g><defs><clipPath id="a"><path fill="#fff" d="M1 4h14v9H1z"/></clipPath></defs></svg>
